germany/municipalities/07132095.svg

<?xml version="1.0" encoding="UTF-8" standalone="no"?>
<!-- Created with Inkscape (http://www.inkscape.org/) -->

<svg
   xmlns:dc="http://purl.org/dc/elements/1.1/"
   xmlns:cc="http://creativecommons.org/ns#"
   xmlns:rdf="http://www.w3.org/1999/02/22-rdf-syntax-ns#"
   xmlns:svg="http://www.w3.org/2000/svg"
   xmlns="http://www.w3.org/2000/svg"
   xmlns:sodipodi="http://sodipodi.sourceforge.net/DTD/sodipodi-0.dtd"
   xmlns:inkscape="http://www.inkscape.org/namespaces/inkscape"
   width="197.93207mm"
   height="209.34358mm"
   viewBox="0 0 701.3341 741.76859"
   id="svg11301"
   version="1.1"
   inkscape:version="0.91 r13725"
   sodipodi:docname="DEU Rosenheim (Altenkirchen) COA.svg">
  <defs
     id="defs11303">
    <inkscape:path-effect
       effect="spiro"
       id="path-effect7118"
       is_visible="true" />
    <inkscape:path-effect
       effect="spiro"
       id="path-effect7122"
       is_visible="true" />
  </defs>
  <sodipodi:namedview
     id="base"
     pagecolor="#ffffff"
     bordercolor="#666666"
     borderopacity="1.0"
     inkscape:pageopacity="0.0"
     inkscape:pageshadow="2"
     inkscape:zoom="0.72798985"
     inkscape:cx="350.66705"
     inkscape:cy="370.88431"
     inkscape:document-units="px"
     inkscape:current-layer="layer1"
     showgrid="false"
     inkscape:window-width="1366"
     inkscape:window-height="745"
     inkscape:window-x="-8"
     inkscape:window-y="-8"
     inkscape:window-maximized="1"
     fit-margin-top="0"
     fit-margin-left="0"
     fit-margin-right="0"
     fit-margin-bottom="0"
     inkscape:snap-midpoints="true"
     inkscape:snap-smooth-nodes="true"
     inkscape:object-nodes="true"
     inkscape:object-paths="true"
     inkscape:snap-nodes="false" />
  <metadata
     id="metadata11306">
    <rdf:RDF>
      <cc:Work
         rdf:about="">
        <dc:format>image/svg+xml</dc:format>
        <dc:type
           rdf:resource="http://purl.org/dc/dcmitype/StillImage" />
        <dc:title></dc:title>
      </cc:Work>
    </rdf:RDF>
  </metadata>
  <g
     inkscape:label="Ebene 1"
     inkscape:groupmode="layer"
     id="layer1"
     transform="translate(-24.589385,-20.758382)">
    <path
       style="fill:#ff0000;fill-opacity:1;fill-rule:evenodd;stroke:none;stroke-width:11;stroke-opacity:1"
       inkscape:connector-curvature="0"
       d="m 30.269107,26.258384 13.398,416.624406 c 7.415,175.24977 153.919783,314.04607 331.589243,314.14417 177.50971,-0.2149 324.0694,-139.0612 331.58941,-314.14417 l 13.39799,-416.624406 -344.9794,0 z"
       id="path10563-0-7" />
    <path
       inkscape:connector-curvature="0"
       style="fill:#ffffff;fill-rule:evenodd;stroke:#000000;stroke-width:11;stroke-linecap:round;stroke-linejoin:round;stroke-miterlimit:4;stroke-dasharray:none;stroke-opacity:1"
       d="m 30.269107,26.258384 0.11719,3.66602 33.9121,164.667956 L 234.45856,223.8033 199.62262,54.650964 34.208557,26.258384 l -3.93945,0 z M 234.45856,223.8033 269.29254,392.95174 439.45266,422.15877 404.61676,253.01033 234.45856,223.8033 Z m 204.9941,198.35547 34.834,169.15039 170.1426,29.20508 c 0,-0.006 0.01,-0.0119 0.012,-0.0176 l -34.8301,-169.1289 -170.1582,-29.20899 z"
       id="path6541-2" />
    <path
       sodipodi:type="star"
       style="opacity:1;fill:#ffffff;fill-opacity:1;fill-rule:nonzero;stroke:#000000;stroke-width:7.4704299;stroke-linecap:round;stroke-linejoin:round;stroke-miterlimit:4;stroke-dasharray:none;stroke-dashoffset:0;stroke-opacity:1"
       id="path6775-18-5"
       sodipodi:sides="6"
       sodipodi:cx="-600.82428"
       sodipodi:cy="393.41928"
       sodipodi:r1="35.917519"
       sodipodi:r2="31.105486"
       sodipodi:arg1="0"
       sodipodi:arg2="0.52359878"
       inkscape:flatsided="true"
       inkscape:rounded="2.5327e-016"
       inkscape:randomized="0"
       d="m -564.90676,393.41928 -17.95876,31.10548 -35.91752,0 -17.95876,-31.10548 17.95876,-31.10548 35.91752,0 z"
       transform="matrix(1.2805233,0,0,0.8955736,889.09256,-41.518837)" />
    <path
       style="fill:#000000;fill-rule:evenodd;stroke:#000000;stroke-width:8;stroke-linecap:butt;stroke-linejoin:round;stroke-miterlimit:4;stroke-dasharray:none;stroke-opacity:1"
       d="M 49.140625 290.06055 L 49.140625 545.35547 C 55.824004 559.66442 63.523987 573.40961 72.138672 586.50977 L 72.138672 317.91602 L 49.140625 290.06055 z "
       transform="translate(24.589385,20.758382)"
       id="path6777-7-82" />
    <path
       style="fill:#ffffff;fill-rule:evenodd;stroke:#000000;stroke-width:8;stroke-linecap:butt;stroke-linejoin:round;stroke-miterlimit:4;stroke-dasharray:none;stroke-opacity:1"
       d="M 141.12695 290.06055 L 118.13086 317.91602 L 118.13086 642.07031 C 124.70514 648.45164 131.5326 654.57795 138.62109 660.4043 L 141.12695 657.36719 L 141.12695 290.06055 z "
       transform="translate(24.589385,20.758382)"
       id="path6777-0-7-2" />
    <path
       style="fill:#ffffff;fill-rule:evenodd;stroke:#000000;stroke-width:8;stroke-linecap:butt;stroke-linejoin:round;stroke-miterlimit:4;stroke-dasharray:none;stroke-opacity:1"
       d="M 72.138672 317.91602 L 72.138672 586.50977 C 85.400436 606.67663 100.84959 625.29623 118.13086 642.07031 L 118.13086 317.91602 L 72.138672 317.91602 z "
       transform="translate(24.589385,20.758382)"
       id="path6794-7-1" />
    <path
       sodipodi:type="star"
       style="opacity:1;fill:#ffffff;fill-opacity:1;fill-rule:nonzero;stroke:#000000;stroke-width:7.4704299;stroke-linecap:round;stroke-linejoin:round;stroke-miterlimit:4;stroke-dasharray:none;stroke-dashoffset:0;stroke-opacity:1"
       id="path6775-18-6-3"
       sodipodi:sides="6"
       sodipodi:cx="-600.82428"
       sodipodi:cy="393.41928"
       sodipodi:r1="35.917519"
       sodipodi:r2="31.105486"
       sodipodi:arg1="0"
       sodipodi:arg2="0.52359878"
       inkscape:flatsided="true"
       inkscape:rounded="2.5327e-016"
       inkscape:randomized="0"
       d="m -564.90676,393.41928 -17.95876,31.10548 -35.91752,0 -17.95876,-31.10548 17.95876,-31.10548 35.91752,0 z"
       transform="matrix(1.2805233,0,0,0.8955736,958.08176,56.0407)" />
    <path
       style="fill:#000000;fill-rule:evenodd;stroke:#000000;stroke-width:8;stroke-linecap:butt;stroke-linejoin:round;stroke-miterlimit:4;stroke-dasharray:none;stroke-opacity:1"
       d="M 118.12891 387.61914 L 118.12891 642.06836 C 125.47172 649.19578 133.14538 655.98739 141.12695 662.41992 L 141.12695 415.47461 L 118.12891 387.61914 z "
       transform="translate(24.589385,20.758382)"
       id="path6777-7-9-8" />
    <path
       style="fill:#ffffff;fill-rule:evenodd;stroke:#000000;stroke-width:8;stroke-linecap:butt;stroke-linejoin:round;stroke-miterlimit:4;stroke-dasharray:none;stroke-opacity:1"
       d="M 210.11523 387.61914 L 187.11914 415.47461 L 187.11914 693.55078 C 194.61273 697.75955 202.27668 701.70319 210.11523 705.33789 L 210.11523 387.61914 z "
       transform="translate(24.589385,20.758382)"
       id="path6777-0-7-7-7" />
    <path
       style="fill:#ffffff;fill-rule:evenodd;stroke:#000000;stroke-width:8;stroke-linecap:butt;stroke-linejoin:round;stroke-miterlimit:4;stroke-dasharray:none;stroke-opacity:1"
       d="M 141.12695 415.47461 L 141.12695 662.41992 C 155.51347 674.01434 170.89337 684.4376 187.11914 693.55078 L 187.11914 415.47461 L 141.12695 415.47461 z "
       transform="translate(24.589385,20.758382)"
       id="path6794-7-2-7" />
    <path
       sodipodi:type="star"
       style="opacity:1;fill:#ffffff;fill-opacity:1;fill-rule:nonzero;stroke:#000000;stroke-width:7.4704299;stroke-linecap:round;stroke-linejoin:round;stroke-miterlimit:4;stroke-dasharray:none;stroke-dashoffset:0;stroke-opacity:1"
       id="path6775-18-0-9"
       sodipodi:sides="6"
       sodipodi:cx="-600.82428"
       sodipodi:cy="393.41928"
       sodipodi:r1="35.917519"
       sodipodi:r2="31.105486"
       sodipodi:arg1="0"
       sodipodi:arg2="0.52359878"
       inkscape:flatsided="true"
       inkscape:rounded="2.5327e-016"
       inkscape:randomized="0"
       d="m -564.90676,393.41928 -17.95876,31.10548 -35.91752,0 -17.95876,-31.10548 17.95876,-31.10548 35.91752,0 z"
       transform="matrix(1.2805233,0,0,0.8955736,1027.071,135.43537)" />
    <path
       style="fill:#000000;fill-rule:evenodd;stroke:#000000;stroke-width:8;stroke-linecap:butt;stroke-linejoin:round;stroke-miterlimit:4;stroke-dasharray:none;stroke-opacity:1"
       d="M 187.11914 467.01367 L 187.11914 693.55078 C 194.61324 697.75983 202.27808 701.70298 210.11719 705.33789 L 210.11719 494.86914 L 187.11914 467.01367 z "
       transform="translate(24.589385,20.758382)"
       id="path6777-7-5-9" />
    <path
       style="fill:#ffffff;fill-rule:evenodd;stroke:#000000;stroke-width:8;stroke-linecap:butt;stroke-linejoin:round;stroke-miterlimit:4;stroke-dasharray:none;stroke-opacity:1"
       d="M 279.10547 467.01367 L 256.10938 494.86914 L 256.10938 722.65625 C 263.66823 724.88179 271.33631 726.84832 279.10547 728.54492 L 279.10547 467.01367 z "
       transform="translate(24.589385,20.758382)"
       id="path6777-0-7-5-0" />
    <path
       style="fill:#ffffff;fill-rule:evenodd;stroke:#000000;stroke-width:8;stroke-linecap:butt;stroke-linejoin:round;stroke-miterlimit:4;stroke-dasharray:none;stroke-opacity:1"
       d="M 210.11719 494.86914 L 210.11719 705.33789 C 224.89401 712.18974 240.25998 717.98974 256.10938 722.65625 L 256.10938 494.86914 L 210.11719 494.86914 z "
       transform="translate(24.589385,20.758382)"
       id="path6794-7-6-8" />
    <path
       sodipodi:type="star"
       style="opacity:1;fill:#ffffff;fill-opacity:1;fill-rule:nonzero;stroke:#000000;stroke-width:7.4704299;stroke-linecap:round;stroke-linejoin:round;stroke-miterlimit:4;stroke-dasharray:none;stroke-dashoffset:0;stroke-opacity:1"
       id="path6775-18-3-2"
       sodipodi:sides="6"
       sodipodi:cx="-600.82428"
       sodipodi:cy="393.41928"
       sodipodi:r1="35.917519"
       sodipodi:r2="31.105486"
       sodipodi:arg1="0"
       sodipodi:arg2="0.52359878"
       inkscape:flatsided="true"
       inkscape:rounded="2.5327e-016"
       inkscape:randomized="0"
       d="m -564.90676,393.41928 -17.95876,31.10548 -35.91752,0 -17.95876,-31.10548 17.95876,-31.10548 35.91752,0 z"
       transform="matrix(1.2805233,0,0,0.8955736,1096.0602,219.10529)" />
    <path
       style="fill:#000000;fill-rule:evenodd;stroke:#000000;stroke-width:8;stroke-linecap:butt;stroke-linejoin:round;stroke-miterlimit:4;stroke-dasharray:none;stroke-opacity:1"
       d="M 256.10742 550.68359 L 256.10742 722.6543 C 263.66703 724.88012 271.33551 726.84814 279.10547 728.54492 L 279.10547 578.53906 L 256.10742 550.68359 z "
       transform="translate(24.589385,20.758382)"
       id="path6777-7-8-5" />
    <path
       style="fill:#ffffff;fill-rule:evenodd;stroke:#000000;stroke-width:8;stroke-linecap:butt;stroke-linejoin:round;stroke-miterlimit:4;stroke-dasharray:none;stroke-opacity:1"
       d="M 348.09375 550.68359 L 325.09766 578.53906 L 325.09766 735.2832 C 332.69743 735.86222 340.3647 736.18936 348.09375 736.25195 L 348.09375 550.68359 z "
       transform="translate(24.589385,20.758382)"
       id="path6777-0-7-57-8" />
    <path
       style="fill:#ffffff;fill-rule:evenodd;stroke:#000000;stroke-width:8;stroke-linecap:butt;stroke-linejoin:round;stroke-miterlimit:4;stroke-dasharray:none;stroke-opacity:1"
       d="M 279.10547 578.53906 L 279.10547 728.54492 C 294.0918 731.81759 309.44724 734.09083 325.09766 735.2832 L 325.09766 578.53906 L 279.10547 578.53906 z "
       transform="translate(24.589385,20.758382)"
       id="path6794-7-9-6" />
    <path
       sodipodi:type="star"
       style="opacity:1;fill:#ffffff;fill-opacity:1;fill-rule:nonzero;stroke:#000000;stroke-width:7.4704299;stroke-linecap:round;stroke-linejoin:round;stroke-miterlimit:4;stroke-dasharray:none;stroke-dashoffset:0;stroke-opacity:1"
       id="path6775-18-8-9"
       sodipodi:sides="6"
       sodipodi:cx="-600.82428"
       sodipodi:cy="393.41928"
       sodipodi:r1="35.917519"
       sodipodi:r2="31.105486"
       sodipodi:arg1="0"
       sodipodi:arg2="0.52359878"
       inkscape:flatsided="true"
       inkscape:rounded="2.5327e-016"
       inkscape:randomized="0"
       d="m -564.90676,393.41928 -17.95876,31.10548 -35.91752,0 -17.95876,-31.10548 17.95876,-31.10548 35.91752,0 z"
       transform="matrix(1.2805233,0,0,0.8955736,1165.0494,310.20283)" />
    <path
       style="fill:#000000;fill-rule:evenodd;stroke:#000000;stroke-width:8;stroke-linecap:butt;stroke-linejoin:round;stroke-miterlimit:4;stroke-dasharray:none;stroke-opacity:1"
       d="M 325.09766 641.78125 L 325.09766 735.2832 C 332.69807 735.86227 340.36599 736.1894 348.0957 736.25195 L 348.0957 669.63672 L 325.09766 641.78125 z "
       transform="translate(24.589385,20.758382)"
       id="path6777-7-4-2" />
    <path
       style="fill:#ffffff;fill-rule:evenodd;stroke:#000000;stroke-width:8;stroke-linecap:butt;stroke-linejoin:round;stroke-miterlimit:4;stroke-dasharray:none;stroke-opacity:1"
       d="M 417.08398 641.78125 L 394.08789 669.63672 L 394.08789 733.39844 C 401.83767 732.38314 409.50687 731.10684 417.08398 729.57031 L 417.08398 641.78125 z "
       transform="translate(24.589385,20.758382)"
       id="path6777-0-7-9-6" />
    <path
       style="fill:#ffffff;fill-rule:evenodd;stroke:#000000;stroke-width:8;stroke-linecap:butt;stroke-linejoin:round;stroke-miterlimit:4;stroke-dasharray:none;stroke-opacity:1"
       d="M 348.0957 669.63672 L 348.0957 736.25195 C 348.95223 736.25888 349.80803 736.26906 350.66602 736.26953 C 365.37483 736.25172 379.86559 735.26171 394.08789 733.39844 L 394.08789 669.63672 L 348.0957 669.63672 z "
       transform="translate(24.589385,20.758382)"
       id="path6794-7-68-8" />
    <path
       style="fill:none;fill-rule:evenodd;stroke:#000000;stroke-width:11;stroke-opacity:1"
       inkscape:connector-curvature="0"
       d="m 30.2691,26.258382 13.398,416.624408 c 7.415,175.24977 153.9198,314.04607 331.58926,314.14417 177.5097,-0.2149 324.0694,-139.0612 331.5894,-314.14417 l 13.398,-416.624408 -344.9794,0 z"
       id="path10563-0" />
    <g
       id="g13252"
       transform="translate(32,0)">
      <g
         transform="matrix(0.70710678,0.70710678,-0.70710678,0.70710678,-671.37734,-1314.7348)"
         id="g13184">
        <rect
           style="opacity:1;fill:#000000;fill-opacity:1;fill-rule:nonzero;stroke:#000000;stroke-width:7.99999952;stroke-linecap:round;stroke-linejoin:round;stroke-miterlimit:4;stroke-dasharray:none;stroke-dashoffset:0;stroke-opacity:1"
           id="rect13123"
           width="37.349991"
           height="286.04623"
           x="1897.5547"
           y="93.871086"
           rx="4.25564"
           ry="4.25564" />
        <rect
           style="opacity:1;fill:#ffffff;fill-opacity:1;fill-rule:nonzero;stroke:#000000;stroke-width:8;stroke-linecap:round;stroke-linejoin:round;stroke-miterlimit:4;stroke-dasharray:none;stroke-dashoffset:0;stroke-opacity:1"
           id="rect13125"
           width="133.91338"
           height="61.946323"
           x="1849.2729"
           y="93.871086" />
      </g>
      <g
         transform="matrix(0.70710678,-0.70710678,0.70710678,0.70710678,-728.39754,1001.7142)"
         id="g13188">
        <rect
           style="opacity:1;fill:#000000;fill-opacity:1;fill-rule:nonzero;stroke:#000000;stroke-width:8;stroke-linecap:round;stroke-linejoin:round;stroke-miterlimit:4;stroke-dasharray:none;stroke-dashoffset:0;stroke-opacity:1"
           id="rect13123-2"
           width="37.349991"
           height="306.99869"
           x="1398.6975"
           y="130.56729"
           rx="4.25564"
           ry="4.25564" />
        <path
           inkscape:connector-curvature="0"
           style="opacity:1;fill:#ffffff;fill-opacity:1;fill-rule:nonzero;stroke:#000000;stroke-width:8;stroke-linecap:round;stroke-linejoin:round;stroke-miterlimit:4;stroke-dasharray:none;stroke-dashoffset:0;stroke-opacity:1"
           d="m 1325.8262,130.76172 -38.9981,30.97266 38.9981,30.97265 133.914,0 0,-61.94531 -133.914,0 z"
           transform="translate(24.589385,20.758382)"
           id="rect13125-9" />
      </g>
    </g>
  </g>
</svg>

<svg xmlns="http://www.w3.org/2000/svg" width="748.09" height="791.22" viewBox="0 0 701.334 741.769"><path style="fill:red;fill-opacity:1;fill-rule:evenodd;stroke:none;stroke-width:11;stroke-opacity:1" d="m30.27 26.258 13.397 416.625c7.415 175.25 153.92 314.046 331.59 314.144 177.51-.215 324.069-139.061 331.589-314.144l13.398-416.625h-344.98z" transform="translate(-24.59 -20.758)"/><path style="fill:#fff;fill-rule:evenodd;stroke:#000;stroke-width:11;stroke-linecap:round;stroke-linejoin:round;stroke-miterlimit:4;stroke-dasharray:none;stroke-opacity:1" d="m30.27 26.258.116 3.666 33.912 164.668 170.16 29.211-34.835-169.152L34.209 26.258h-3.94zm204.189 197.545 34.834 169.149 170.16 29.207-34.836-169.149-170.158-29.207zM439.453 422.16l34.834 169.15 170.142 29.205c0-.006.01-.012.012-.017l-34.83-169.13-170.158-29.208z" transform="translate(-24.59 -20.758)"/><path style="opacity:1;fill:#fff;fill-opacity:1;fill-rule:nonzero;stroke:#000;stroke-width:7.4704299;stroke-linecap:round;stroke-linejoin:round;stroke-miterlimit:4;stroke-dasharray:none;stroke-dashoffset:0;stroke-opacity:1" d="m-564.907 393.42-17.959 31.105h-35.917l-17.959-31.106 17.959-31.105h35.917z" transform="matrix(1.28052 0 0 .89557 864.503 -62.277)"/><path style="fill:#000;fill-rule:evenodd;stroke:#000;stroke-width:8;stroke-linecap:butt;stroke-linejoin:round;stroke-miterlimit:4;stroke-dasharray:none;stroke-opacity:1" d="M49.14 290.06v255.295A325.994 325.994 0 0 0 72.14 586.51V317.916L49.14 290.061z"/><path style="fill:#fff;fill-rule:evenodd;stroke:#000;stroke-width:8;stroke-linecap:butt;stroke-linejoin:round;stroke-miterlimit:4;stroke-dasharray:none;stroke-opacity:1" d="m141.127 290.06-22.996 27.856V642.07a333.263 333.263 0 0 0 20.49 18.334l2.506-3.037V290.061zM72.139 317.916V586.51c13.261 20.167 28.71 38.786 45.992 55.56V317.916H72.139z"/><path style="opacity:1;fill:#fff;fill-opacity:1;fill-rule:nonzero;stroke:#000;stroke-width:7.4704299;stroke-linecap:round;stroke-linejoin:round;stroke-miterlimit:4;stroke-dasharray:none;stroke-dashoffset:0;stroke-opacity:1" d="m-564.907 393.42-17.959 31.105h-35.917l-17.959-31.106 17.959-31.105h35.917z" transform="matrix(1.28052 0 0 .89557 933.492 35.282)"/><path style="fill:#000;fill-rule:evenodd;stroke:#000;stroke-width:8;stroke-linecap:butt;stroke-linejoin:round;stroke-miterlimit:4;stroke-dasharray:none;stroke-opacity:1" d="M118.129 387.62v254.448a333.297 333.297 0 0 0 22.998 20.352V415.475l-22.998-27.856z"/><path style="fill:#fff;fill-rule:evenodd;stroke:#000;stroke-width:8;stroke-linecap:butt;stroke-linejoin:round;stroke-miterlimit:4;stroke-dasharray:none;stroke-opacity:1" d="m210.115 387.62-22.996 27.855V693.55a333.227 333.227 0 0 0 22.996 11.787V387.619zM141.127 415.475V662.42a333.766 333.766 0 0 0 45.992 31.13V415.476h-45.992z"/><path style="opacity:1;fill:#fff;fill-opacity:1;fill-rule:nonzero;stroke:#000;stroke-width:7.4704299;stroke-linecap:round;stroke-linejoin:round;stroke-miterlimit:4;stroke-dasharray:none;stroke-dashoffset:0;stroke-opacity:1" d="m-564.907 393.42-17.959 31.105h-35.917l-17.959-31.106 17.959-31.105h35.917z" transform="matrix(1.28052 0 0 .89557 1002.482 114.677)"/><path style="fill:#000;fill-rule:evenodd;stroke:#000;stroke-width:8;stroke-linecap:butt;stroke-linejoin:round;stroke-miterlimit:4;stroke-dasharray:none;stroke-opacity:1" d="M187.12 467.014V693.55a333.23 333.23 0 0 0 22.997 11.787V494.869l-22.998-27.855z"/><path style="fill:#fff;fill-rule:evenodd;stroke:#000;stroke-width:8;stroke-linecap:butt;stroke-linejoin:round;stroke-miterlimit:4;stroke-dasharray:none;stroke-opacity:1" d="m279.105 467.014-22.996 27.855v227.787a332.799 332.799 0 0 0 22.996 5.889V467.014zM210.117 494.87v210.468a332.694 332.694 0 0 0 45.992 17.318V494.87h-45.992z"/><path style="opacity:1;fill:#fff;fill-opacity:1;fill-rule:nonzero;stroke:#000;stroke-width:7.4704299;stroke-linecap:round;stroke-linejoin:round;stroke-miterlimit:4;stroke-dasharray:none;stroke-dashoffset:0;stroke-opacity:1" d="m-564.907 393.42-17.959 31.105h-35.917l-17.959-31.106 17.959-31.105h35.917z" transform="matrix(1.28052 0 0 .89557 1071.47 198.347)"/><path style="fill:#000;fill-rule:evenodd;stroke:#000;stroke-width:8;stroke-linecap:butt;stroke-linejoin:round;stroke-miterlimit:4;stroke-dasharray:none;stroke-opacity:1" d="M256.107 550.684v171.97a332.8 332.8 0 0 0 22.998 5.89V578.54l-22.998-27.855z"/><path style="fill:#fff;fill-rule:evenodd;stroke:#000;stroke-width:8;stroke-linecap:butt;stroke-linejoin:round;stroke-miterlimit:4;stroke-dasharray:none;stroke-opacity:1" d="m348.094 550.684-22.996 27.855v156.744c7.6.58 15.267.906 22.996.969V550.684zM279.105 578.54v150.005a334.669 334.669 0 0 0 45.993 6.738V578.54h-45.993z"/><path style="opacity:1;fill:#fff;fill-opacity:1;fill-rule:nonzero;stroke:#000;stroke-width:7.4704299;stroke-linecap:round;stroke-linejoin:round;stroke-miterlimit:4;stroke-dasharray:none;stroke-dashoffset:0;stroke-opacity:1" d="m-564.907 393.42-17.959 31.105h-35.917l-17.959-31.106 17.959-31.105h35.917z" transform="matrix(1.28052 0 0 .89557 1140.46 289.444)"/><path style="fill:#000;fill-rule:evenodd;stroke:#000;stroke-width:8;stroke-linecap:butt;stroke-linejoin:round;stroke-miterlimit:4;stroke-dasharray:none;stroke-opacity:1" d="M325.098 641.781v93.502c7.6.58 15.268.906 22.998.969v-66.615l-22.998-27.856z"/><path style="fill:#fff;fill-rule:evenodd;stroke:#000;stroke-width:8;stroke-linecap:butt;stroke-linejoin:round;stroke-miterlimit:4;stroke-dasharray:none;stroke-opacity:1" d="m417.084 641.781-22.996 27.856v63.761a334.026 334.026 0 0 0 22.996-3.828v-87.789zM348.096 669.637v66.615c.856.007 1.712.017 2.57.018a337.259 337.259 0 0 0 43.422-2.872v-63.761h-45.992z"/><path style="fill:none;fill-rule:evenodd;stroke:#000;stroke-width:11;stroke-opacity:1" d="m30.27 26.258 13.397 416.625c7.415 175.25 153.92 314.046 331.59 314.144 177.51-.215 324.069-139.061 331.589-314.144l13.398-416.625h-344.98z" transform="translate(-24.59 -20.758)"/><g transform="rotate(45 1280.1 -1469.225)"><rect style="opacity:1;fill:#000;fill-opacity:1;fill-rule:nonzero;stroke:#000;stroke-width:7.99999952;stroke-linecap:round;stroke-linejoin:round;stroke-miterlimit:4;stroke-dasharray:none;stroke-dashoffset:0;stroke-opacity:1" width="37.35" height="286.046" x="1897.555" y="93.871" rx="4.256" ry="4.256"/><path style="opacity:1;fill:#fff;fill-opacity:1;fill-rule:nonzero;stroke:#000;stroke-width:8;stroke-linecap:round;stroke-linejoin:round;stroke-miterlimit:4;stroke-dasharray:none;stroke-dashoffset:0;stroke-opacity:1" d="M1849.273 93.871h133.913v61.946h-133.913z"/></g><g transform="rotate(-45 823.625 1360.786)"><rect style="opacity:1;fill:#000;fill-opacity:1;fill-rule:nonzero;stroke:#000;stroke-width:8;stroke-linecap:round;stroke-linejoin:round;stroke-miterlimit:4;stroke-dasharray:none;stroke-dashoffset:0;stroke-opacity:1" width="37.35" height="306.999" x="1398.697" y="130.567" rx="4.256" ry="4.256"/><path style="opacity:1;fill:#fff;fill-opacity:1;fill-rule:nonzero;stroke:#000;stroke-width:8;stroke-linecap:round;stroke-linejoin:round;stroke-miterlimit:4;stroke-dasharray:none;stroke-dashoffset:0;stroke-opacity:1" d="m1325.826 130.762-38.998 30.972 38.998 30.973h133.914v-61.945h-133.914z" transform="translate(24.59 20.758)"/></g></svg>
